X:1
T:Ecco il carro d'Elia
T:Giammateo Asola
T:Source : Madrigali a due voci---Venetia---G.Vincenti---1587. Editor : André Vierendeels (19/04/17).
T:Notes : Original clefs : C3, C3 Editorial accidentals above the staff "Fuga di un tempo, in unisono"
T:Ecco il carro d'Elia
T:©
T:©
C:Giammateo Asola
Z:©
%%score [ 1 2 ]
L:1/8
Q:1/4=120
M:4/4
K:C
V:1 treble-8 nm="Tenor 1" snm="T 1"
V:2 treble-8 nm="Tenor 2" snm="T 2"
V:1
 d6 d2 | e4 g2 g2 | f2 g4 f2 | g4 z2 c2 | d2 e2 c2 d2 | edcB ABcA | B2 c4 B2 | c4 z2 e2 | %8
w: Ec- co'il|car- ro d'E-|li- * *|a, tut-|to di fo- co'ar-|den- * * * * * * *||te, ch'al|
 d2 c2 d2 d2 | e2 cd efge | f2 g4 f2 | g4 z2 c2 | d2 B2 c2 A2 | G2 c2 d2 e2 | f2 g4 f2 | g4 z2 c2 | %16
w: ciel rat- to ch'in|vi- * * * * * *||a, e|por- ta'in gremb' a|Dio la no- stra|men- * *|te, fe-|
 d2 e2 d2 d2 | G4 A2 e2 | f2 g2 g2 f2 | g3 f e4 | d2 G2 A2 A2 | B2 G2 ABcA | Bc d4 c2 | d4 z2 e2 | %24
w: ren- te di cui|vo- te, fu-|ron l'ac- ce- se|ro- * *|te, su que- sto|car- ro scor- * * *||to, po-|
 d2 f2 e2 e2 | d2 G2 c2 A2 | B2 d4 c2 | d4 z2 c2 | d2 f2 e2 e2 | d2 G2 c2 A2 | Bc d4 c2 | %31
w: tea ve- der si-|cur l'oc- ca- so'e|l'or- * *|to, po-|tea ve- der si-|cur l'oc- ca- so'e|l'or- * * *|
 d4 z2 c2 | G2 B2 A4 | G2 G2 c2 e2 | d2 g4 f2 | g4 z2 c2 | B2 G2 A4 | G2 g2 f2 e2- | ed d4 c2 | %39
w: to, po-|tea ve- der|si- cur l'oc- ca-|so'e l'or- *|to, po-|tea ve- der|si- cur l'oc- ca-|* so'e l'or- *|
 d2 G2 A3 B | c2 d2 e4 | d8 |] %42
w: to, l'oc- ca- *|* so'e l'or-|to.|
V:2
 z8 | z8 | d6 d2 | e4 g2 g2 | f2 g4 f2 | g4 z2 c2 | d2 e2 c2 d2 | edcB ABcA | B2 c4 B2 | c4 z2 e2 | %10
w: ||Ec- co'il|car- ro d'E-|li- * *|a, tut-|to di fa- co'ar-|den- * * * * * * *||te, ch'al|
 d2 c2 d2 d2 | e2 cd efge | f2 g4 f2 | g4 z2 c2 | d2 B2 c2 A2 | G2 c2 d2 e2 | f2 g4 f2 | g4 z2 c2 | %18
w: ciel rat- to ch'in|vi- * * * * * *||a, e|por- ta'in grenb' a|Dio no- stra men-||te, fe-|
 d2 e2 d2 d2 | G4 A2 e2 | f2 g2 g2 f2 | g3 f e4 | d2 G2 A2 A2 | B2 G2 ABcA | Bc d4 c2 | d4 z2 e2 | %26
w: ren- te di cui|vo- te, fu-|ron l'ac- ce- se|ro- * *|te, su que- sto|ca- ro scor- * * *||to, po-|
 d2 f2 e2 e2 | d2 G2 c2 A2 | B2 d4 c2 | d4 z2 c2 | d2 f2 e2 e2 | d2 G2 c2 A2 | Bc d4 c2 | %33
w: tea ve- der si-|cur l'oc- ca- co'e|l'or- * *|to, po-|tea ve- der si-|cur l'oc- ca- so'e|l'or- * * *|
 d4 z2 c2 | G2 B2 A4 | G2 G2 c2 e2 | d2 g4 f2 | g4 z2 c2 | B2 G2 A4 | G2 g2 f2 e2- |"^#" e2 d4 c2 | %41
w: to, po-|tea ve- der|si- cur l'oc- ca-|so'e l'or- *|to, po-|tea ve- der|si- cur l'oc- ca-|* so'e l'or-|
 d8 |] %42
w: to.|

